!!!COM: Palestrina, Giovanni Perluigi da
!!!OPR: Ecce ego Joannes
!!!OTL: Kyrie II
**kern	**kern	**kern	**kern	**kern	**kern
*Ibass	*Ibarit	*Itenor	*Itenor	*Icalto	*Icant
!Bassus	!Baritone	!Tenor 2	!Tenor 1	!Altus	!Cantus
*clefF4	*clefF4	*clefGv2	*clefGv2	*clefG2	*clefG2
*k[]	*k[]	*k[]	*k[]	*k[]	*k[]
*G:mix	*G:mix	*G:mix	*G:mix	*G:mix	*G:mix
*M4/2	*M4/2	*M4/2	*M4/2	*M4/2	*M4/2
=1	=1	=1	=1	=1	=1
1G	0r	1B	1d	1g	0r
1G	.	1B	1d	1g	.
=2	=2	=2	=2	=2	=2
1C	0r	1c	1e	1g	0r
1D	.	1A	1d	1f#	.
=3	=3	=3	=3	=3	=3
1.G	0r	1.B	1.d	1.g	0r
2C	.	2c	2g	2e	.
=4	=4	=4	=4	=4	=4
0C	1c	4c	2.g	2e	1ee
.	.	4d	.	.	.
.	.	4e	.	2g	.
.	.	4f	4f	.	.
.	1c	1g	2e	2c	1ee
.	.	.	[2g	[2cc	.
=5	=5	=5	=5	=5	=5
0r	1G	0r	2g]	2cc]	1dd
.	.	.	2g	2b	.
.	1A	.	2e	1a	1cc#
.	.	.	2e	.	.
=6	=6	=6	=6	=6	=6
0r	1.d	0r	1.f#	1a	1.dd
.	.	.	.	[1d	.
.	2G	.	2g	.	2b
=7	=7	=7	=7	=7	=7
0r	1G	0r	0g	2d]	4b
.	.	.	.	.	4cc
.	.	.	.	2d	4dd
.	.	.	.	.	4b
.	1c	.	.	4e	4cc
.	.	.	.	4f	4dd
.	.	.	.	4g	[2ee
.	.	.	.	4e	.
=8	=8	=8	=8	=8	=8
0r	2d	0r	2r	4f	4ee]
.	.	.	.	4g	4dd
.	2d	.	2f#	2.a	1dd
.	2e	.	2g	.	.
.	.	.	.	4g	.
.	2e	.	2g	[2g	2cc#
=9	=9	=9	=9	=9	=9
1r	1d	1r	2a	2g]	0dd
.	.	.	2a	2f#	.
1G	2r	1B	1g	[1g	.
.	2G	.	.	.	.
=10	=10	=10	=10	=10	=10
1G	1B	1d	2r	1g]	2r
.	.	.	1g	.	2dd
1C	1c	1e	.	1r	2cc
.	.	.	2g	.	2g
=11	=11	=11	=11	=11	=11
1D	1A	1d	2f#	0r	2.dd
.	.	.	2f#	.	.
.	.	.	.	.	4cc
[1G	[1B	[1d	[1g	.	4b
.	.	.	.	.	4a
.	.	.	.	.	2g
=12	=12	=12	=12	=12	=12
2G]	2B]	2d]	2g]	0r	2.gg
2C	2c	2g	2e	.	.
.	.	.	.	.	4ff
1C	[1c	2g	4e	.	4ee
.	.	.	4f	.	4dd
.	.	2G	4g	.	4cc
.	.	.	4e	.	4b
=13	=13	=13	=13	=13	=13
1F	1c]	4A	4f	0r	1a
.	.	4B	4g	.	.
.	.	4c	2.a	.	.
.	.	4A	.	.	.
2G	2r	4B	.	.	1dd
.	.	4c	4g	.	.
2G	2B	[2d	[2g	.	.
=14	=14	=14	=14	=14	=14
2A	2c	4d]	2g]	1r	0r
.	.	4c	.	.	.
2A	2c	1c	2f#	.	.
1G	2d	.	[1g	2r	.
.	2d	2B	.	2d	.
=15	=15	=15	=15	=15	=15
1C	1c	2c	1g]	2e	2r
.	.	2e	.	2e	2g
1r	1r	1d	2r	2f#	2a
.	.	.	[2d	2f#	2a
=16	=16	=16	=16	=16	=16
1G	1r	0r	2d]	2.g	2b
.	.	.	2e	.	2b
.	.	.	.	4f	.
2A	1c	.	2e	2e	1cc
2A	.	.	[2f	2a	.
=17	=17	=17	=17	=17	=17
2B-	2d	1r	4f]	2f	1r
.	.	.	4e	.	.
2B-	2d	.	1d	2g	.
1A	2e	2r	.	2.a	2r
.	2e	2a	2c#	.	2ee
.	.	.	.	4a	.
=18	=18	=18	=18	=18	=18
1D	4d	2.f	1d	0a	2ff
.	4e	.	.	.	.
.	4f	.	.	.	2dd
.	4d	4g	.	.	.
1r	1e	2a	1A	.	2dd
.	.	2e	.	.	2cc#
=19	=19	=19	=19	=19	=19
0r	0r	2f	2.d	2r	2dd
.	.	2f	.	2a	2.dd
.	.	.	4d	.	.
.	.	2.g	2G	2b	.
.	.	.	.	.	4cc
.	.	.	[2g	2e	4b
.	.	4f	.	.	4a
=20	=20	=20	=20	=20	=20
0r	0r	4e	4g]	2.g	2g
.	.	4d	4f	.	.
.	.	2.c	4e	.	2.gg
.	.	.	4d	4f	.
.	.	.	[1c	4e	.
.	.	4d	.	4d	4ff
.	.	4e	.	2c	[2ee
.	.	4f	.	.	.
=21	=21	=21	=21	=21	=21
0r	0r	1g	2c]	2cc	2ee]
.	.	.	2G	2b	2dd
.	.	2f	2d	2a	2dd
.	.	2g	2e	[2g	2cc
=22	=22	=22	=22	=22	=22
1D	2r	1a	1d	2g]	1.dd
.	2A	.	.	2f#	.
2.G	2B	2d	2r	1g	.
.	2B	[2g	2d	.	2dd
4G	.	.	.	.	.
=23	=23	=23	=23	=23	=23
2C	2.c	4g]	2e	2r	0cc
.	.	4f	.	.	.
2.c	.	4e	2e	2g	.
.	4B	4d	.	.	.
.	4A	2e	2.c	2a	.
4B	4G	.	.	.	.
4A	[2F	2f	.	2a	.
4G	.	.	4B	.	.
=24	=24	=24	=24	=24	=24
1.F	4F]	1.a	4A	2cc	0r
.	4G	.	4G	.	.
.	4A	.	2F	2cc	.
.	4B	.	.	.	.
.	1c	.	2f	1cc	.
2C	.	2g	2e	.	.
=25	=25	=25	=25	=25	=25
2G	2B	2g	2d	0r	1r
2A	2c	2f#	1c	.	.
1G	1d	1g	.	.	1dd
.	.	.	2B	.	.
=26	=26	=26	=26	=26	=26
0C	0c	1e	2.c	1g	2.gg
.	.	.	4d	.	4ff
.	.	2c	2.e	2.cc	2ee
.	.	[2e	.	.	[2gg
.	.	.	4f	4cc	.
=27	=27	=27	=27	=27	=27
0r	0r	4e]	1g	2b	4gg]
.	.	4d	.	.	4ff
.	.	4c	.	2.cc	4ee
.	.	4B	.	.	4dd
.	.	2A	1r	.	2.cc
.	.	.	.	4b	.
.	.	2c	.	4a	.
.	.	.	.	4g	4b
=28	=28	=28	=28	=28	=28
0r	0r	2d	0r	2f	2a
.	.	2e	.	2e	2g
.	.	4f	.	2d	2a
.	.	4g	.	.	.
.	.	[2a	.	2c	2cc
=29	=29	=29	=29	=29	=29
0r	0r	4a]	1G	1d	2.b
.	.	4g	.	.	.
.	.	1g	.	.	.
.	.	.	.	.	8a
.	.	.	.	.	8g
.	.	.	2.d	2r	1a
.	.	2f#	.	[2d	.
.	.	.	4d	.	.
=30	=30	=30	=30	=30	=30
1r	1G	0g	1B	2d]	1g
.	.	.	.	2.g	.
1C	2.c	.	2.e	.	2r
.	.	.	.	4f	.
.	.	.	.	2e	[2cc
.	4B	.	4d	.	.
=31	=31	=31	=31	=31	=31
2.F	1A	1c	4c	2.a	2cc]
.	.	.	4B	.	.
.	.	.	2A	.	2.ff
4E	.	.	.	4g	.
1D	2.d	2.f	2.a	4f	.
.	.	.	.	4d	4ee
.	.	.	.	2a	[2dd
.	4c	4f	4a	.	.
=32	=32	=32	=32	=32	=32
2.G	4B	1d	2g	1b	2dd]
.	4A	.	.	.	.
.	4G	.	2d	.	2.gg
4F	4A	.	.	.	.
4E	2B	2.g	[1e	2r	.
4D	.	.	.	.	4ff
[2C	2c	.	.	2e	4ee
.	.	4f	.	.	4dd
=33	=33	=33	=33	=33	=33
2C]	0G	4e	1e]	1g	1cc
.	.	4d	.	.	.
2C	.	1c	.	.	.
1G	.	.	1d	2g	1dd
.	.	2B	.	[2g	.
=34	=34	=34	=34	=34	=34
0D	1A	0A	1.d	2g]	0dd
.	.	.	.	4f#	.
.	.	.	.	4e	.
.	1d	.	.	1f#	.
.	.	.	2d	.	.
=35	=35	=35	=35	=35	=35
0G	0B	0G	0d	0g	0dd
==	==	==	==	==	==
*-	*-	*-	*-	*-	*-
!!!CDT: 1525/^1526/-1594/2/2
!!!OCY: Italia
!!!AGN: Mass (Parody)
!!!AST: renaissance, vocal
!!!ASW: Motet (Unidentified)
!!!PWK: Masses, Book 12
!!!RNB: Cadence finals: D
!!!YOR: Le Opere Complete, v. 29, p. 197
!!!YOO: Rome, Italy: Fratelli Scalera
!!!END: 1992//
!!!EED: John Miller
!!!YEC: Copyright 2000, John Miller
!!!YEN: United States of America
!!!YEM: Rights to all derivative electronic formats reserved.
!!!YEM: Refer to licensing agreement for further details.
!!!YEM: This file must be accompanied by the licensing agreement.
!!!YEM: A copy of the licensing agreement may be found at http://www.music-cog.ohio-state.edu/HumdrumDatabases/Palestrina/license.txt
!!!EMD: converted to Humdrum by Bret Aarden
